logo/ynSeeds.svg

<svg fill="none" height="18" viewBox="0 0 18 18" width="18" xmlns="http://www.w3.org/2000/svg"><rect fill="#0a2845" height="18" rx="9" width="18"/><g fill="#e8c787"><path d="m12.2851 10.3824c.378-.71969.6167-1.46711.7097-2.22156.0899-.72956.0333-1.43834-.1638-2.04989-.2372-.73608-.6626-1.31037-1.2384-1.67687-.4052.61463-1.3566 2.21889-2.04373 4.64747-.6778 2.39515-1.72279 3.69825-2.34575 4.30185.24436.066.50014.0995.76518.0995.79102 0 1.61877-.2933 2.3938-.8481.7759-.5555 1.4409-1.3344 1.923-2.2524z"/><path d="m6.52956 13.101c.17055-.1442.43782-.3978.74209-.7868.4828-.6171 1.15931-1.7101 1.64099-3.41268.68905-2.43509 1.61886-4.05248 2.07606-4.75518-.2906-.09707-.5988-.14634-.9207-.14634-.791 0-1.61875.2932-2.39372.84809-.77599.5555-1.44092 1.33432-1.92303 2.25228-.378.71969-.61678 1.4671-.70973 2.22164-.08987.72959-.03322 1.43839.16385 2.04989.24882.7722.70484 1.3662 1.32419 1.7291z"/></g></svg>

<svg width="18" height="18" viewBox="0 0 18 18" fill="none" xmlns="http://www.w3.org/2000/svg">
<rect width="18" height="18" rx="9" fill="#0A2845"/>
<path d="M12.2851 10.3824C12.6631 9.66271 12.9018 8.91529 12.9948 8.16084C13.0847 7.43128 13.0281 6.7225 12.831 6.11095C12.5938 5.37487 12.1684 4.80058 11.5926 4.43408C11.1874 5.04871 10.236 6.65297 9.54887 9.08155C8.87107 11.4767 7.82608 12.7798 7.20312 13.3834C7.44748 13.4494 7.70326 13.4829 7.9683 13.4829C8.75932 13.4829 9.58707 13.1896 10.3621 12.6348C11.138 12.0793 11.803 11.3004 12.2851 10.3824Z" fill="#E8C787"/>
<path d="M6.52956 13.101C6.70011 12.9568 6.96738 12.7032 7.27165 12.3142C7.75445 11.6971 8.43096 10.6041 8.91264 8.90152C9.60169 6.46643 10.5315 4.84904 10.9887 4.14634C10.6981 4.04927 10.3899 4 10.068 4C9.277 4 8.44925 4.2932 7.67428 4.84809C6.89829 5.40359 6.23336 6.18241 5.75125 7.10037C5.37325 7.82006 5.13447 8.56747 5.04152 9.32201C4.95165 10.0516 5.0083 10.7604 5.20537 11.3719C5.45419 12.1441 5.91021 12.7381 6.52956 13.101Z" fill="#E8C787"/>
</svg>
